packages/react/src/components/base/Icon/assets/icon-ambulance.svg

<svg width="24" height="24" viewBox="0 0 24 24" xmlns="http://www.w3.org/2000/svg" fill="currentColor"> <path d="M6.93738 10.126C6.93738 9.82761 7.0559 9.54146 7.26688 9.33048C7.47786 9.1195 7.76401 9.00098 8.06238 9.00098H8.81238V8.25098C8.81238 7.95261 8.9309 7.66646 9.14188 7.45548C9.35286 7.2445 9.63901 7.12598 9.93738 7.12598C10.2357 7.12598 10.5219 7.2445 10.7329 7.45548C10.9439 7.66646 11.0624 7.95261 11.0624 8.25098V9.00098H11.8124C12.1107 9.00098 12.3969 9.1195 12.6079 9.33048C12.8189 9.54146 12.9374 9.82761 12.9374 10.126C12.9374 10.4243 12.8189 10.7105 12.6079 10.9215C12.3969 11.1324 12.1107 11.251 11.8124 11.251H11.0624V12.001C11.0624 12.2993 10.9439 12.5855 10.7329 12.7965C10.5219 13.0074 10.2357 13.126 9.93738 13.126C9.63901 13.126 9.35286 13.0074 9.14188 12.7965C8.9309 12.5855 8.81238 12.2993 8.81238 12.001V11.251H8.06238C7.76401 11.251 7.47786 11.1324 7.26688 10.9215C7.0559 10.7105 6.93738 10.4243 6.93738 10.126ZM23.4374 10.126V16.126C23.4374 16.6233 23.2398 17.1002 22.8882 17.4518C22.5366 17.8034 22.0597 18.001 21.5624 18.001H20.6193C20.3866 18.6589 19.9556 19.2286 19.3858 19.6314C18.816 20.0343 18.1353 20.2507 17.4374 20.2507C16.7395 20.2507 16.0588 20.0343 15.4889 19.6314C14.9191 19.2286 14.4882 18.6589 14.2555 18.001H10.1193C9.88657 18.6589 9.45564 19.2286 8.88581 19.6314C8.31597 20.0343 7.63526 20.2507 6.93738 20.2507C6.2395 20.2507 5.55878 20.0343 4.98895 19.6314C4.41912 19.2286 3.98819 18.6589 3.7555 18.001H2.43738C1.9401 18.001 1.46318 17.8034 1.11155 17.4518C0.759922 17.1002 0.562378 16.6233 0.562378 16.126V5.62598C0.562378 5.1287 0.759922 4.65178 1.11155 4.30015C1.46318 3.94852 1.9401 3.75098 2.43738 3.75098H16.6874C16.9857 3.75098 17.2719 3.8695 17.4829 4.08048C17.6939 4.29146 17.8124 4.57761 17.8124 4.87598V5.25098H20.3043C20.6793 5.24967 21.046 5.36142 21.3565 5.57163C21.6671 5.78184 21.9071 6.08077 22.0452 6.42941L23.3577 9.71066C23.4103 9.84282 23.4373 9.98375 23.4374 10.126ZM17.8124 7.50098V9.00098H20.6511L20.0511 7.50098H17.8124ZM2.81238 15.751H3.7555C3.98819 15.093 4.41912 14.5234 4.98895 14.1205C5.55878 13.7176 6.2395 13.5013 6.93738 13.5013C7.63526 13.5013 8.31597 13.7176 8.88581 14.1205C9.45564 14.5234 9.88657 15.093 10.1193 15.751H14.2555C14.5004 15.0657 14.9584 14.4769 15.5624 14.071V6.00098H2.81238V15.751ZM8.06238 16.876C8.06238 16.6535 7.9964 16.436 7.87278 16.251C7.74917 16.066 7.57346 15.9218 7.3679 15.8366C7.16233 15.7515 6.93613 15.7292 6.7179 15.7726C6.49967 15.816 6.29922 15.9231 6.14188 16.0805C5.98455 16.2378 5.8774 16.4383 5.83399 16.6565C5.79059 16.8747 5.81286 17.1009 5.89801 17.3065C5.98316 17.5121 6.12736 17.6878 6.31236 17.8114C6.49737 17.935 6.71487 18.001 6.93738 18.001C7.23575 18.001 7.52189 17.8824 7.73287 17.6715C7.94385 17.4605 8.06238 17.1743 8.06238 16.876ZM18.5624 16.876C18.5624 16.6535 18.4964 16.436 18.3728 16.251C18.2492 16.066 18.0735 15.9218 17.8679 15.8366C17.6623 15.7515 17.4361 15.7292 17.2179 15.7726C16.9997 15.816 16.7992 15.9231 16.6419 16.0805C16.4845 16.2378 16.3774 16.4383 16.334 16.6565C16.2906 16.8747 16.3129 17.1009 16.398 17.3065C16.4832 17.5121 16.6274 17.6878 16.8124 17.8114C16.9974 17.935 17.2149 18.001 17.4374 18.001C17.7357 18.001 18.0219 17.8824 18.2329 17.6715C18.4439 17.4605 18.5624 17.1743 18.5624 16.876ZM21.1874 15.751V11.251H17.8124V13.5225C18.442 13.5939 19.0389 13.8406 19.5351 14.2346C20.0313 14.6286 20.407 15.154 20.6193 15.751H21.1874Z"/> </svg>

<svg viewBox="0 0 24 24" xmlns="http://www.w3.org/2000/svg" aria-hidden="true" fill="currentColor"><path d="M6.937 10.126a1.125 1.125 0 0 1 1.125-1.125h.75v-.75a1.125 1.125 0 1 1 2.25 0v.75h.75a1.125 1.125 0 0 1 0 2.25h-.75v.75a1.125 1.125 0 0 1-2.25 0v-.75h-.75a1.125 1.125 0 0 1-1.125-1.125m16.5 0v6a1.875 1.875 0 0 1-1.875 1.875h-.943a3.375 3.375 0 0 1-6.363 0h-4.137a3.375 3.375 0 0 1-6.363 0H2.437a1.875 1.875 0 0 1-1.875-1.875v-10.5a1.875 1.875 0 0 1 1.875-1.875h14.25a1.125 1.125 0 0 1 1.125 1.125v.375h2.492a1.865 1.865 0 0 1 1.741 1.178l1.313 3.282c.052.132.08.273.08.415m-5.625-2.625v1.5h2.84l-.6-1.5zm-15 8.25h.944a3.375 3.375 0 0 1 6.363 0h4.137a3.4 3.4 0 0 1 1.306-1.68v-8.07H2.812zm5.25 1.125a1.125 1.125 0 1 0-2.25 0 1.125 1.125 0 0 0 2.25 0m10.5 0a1.125 1.125 0 1 0-2.25 0 1.125 1.125 0 0 0 2.25 0m2.625-1.125v-4.5h-3.375v2.272a3.38 3.38 0 0 1 2.807 2.228z"/></svg>
